X:18481
T:Waltz. CJF.194
M:3/8
L:1/16
Q:75
C:"from Walton"
S: C.J.Fox MS, 1829/33, Beverley,E.Yorks.
R:Waltz
O:England
A:East Yorkshire
B:Kidson Coll.Mitchell Lib.M1805
N:"from Walton" is in the title line. - PJH
Z:P J Headford 2000
K:Eb
g2^f2g2|b4g2|f2=e2f2|g4e2|g2^f2g2|b4g2|\
f2b2d2|e4||!g2|g2g^fgf|g2e2d2|c2e2d2|
c2G2G2|g2g^fgf|gagfed|c=BcedB|c4||!G2|\
G2(G=Bdf|G2(G=Bdf)|=e2d2c2|c2e2d2|
G2(G=Bdf)|G1(G=Bdf)|c2d2_e2|=e2=f2^f2||


